svg/u1f952.svg

<svg viewBox="0 0 128 128" xmlns="http://www.w3.org/2000/svg">
  <path d="M75.57,49.03L4.53,103.66c0,0,2.03,7.95,9.47,12.35c6.19,3.66,12.85,3.72,21.31,0.85 c8.46-2.88,13.36-7.1,13.36-7.1s3.39,1.08,5.92-0.85c2.32-1.76,2.01-4.55,2.03-4.57c0.81-0.76,13.56-10.48,19.48-16.06 c5.92-5.58,23.65-23.86,23.65-23.86s3.31,0.3,5.25-1.91c1.81-2.06,0.84-4.01,0.84-4.01s18.13-15.73,18.44-28.41 c0.34-14.04-10.82-18.77-12.69-19.28C109.73,10.3,75.57,49.03,75.57,49.03z" fill="#2E7E30"/>
  <path d="M73.03,29.58c0,0-4.57,5.07-5.92,6.77c-1.35,1.69-5.07,5.58-5.07,5.58s-2.74-1.19-5.07,1.35 c-2.07,2.25-1.52,5.41-1.52,5.41S42.25,60.36,30.75,68.31c-11.5,7.95-23.8,16.07-26.38,25.71c-1.44,5.38,0.17,9.64,0.17,9.64 s2.88,0.68,5.41,2.54s4.19,3.96,4.19,3.96s10.02,0.94,18.82-3.62S65.76,83.7,71.68,78.29c5.92-5.41,28.45-27.96,34-35.01 c5.95-7.56,10.49-17.25,9.13-24.86c-1.35-7.61-3.21-7.61-3.21-7.61s-9.98-4.06-18.94,0.51c-8.4,4.28-13.36,10.99-13.36,10.99 s-2.85-1-4.85,1.3C72.08,26.32,73.03,29.58,73.03,29.58z" fill="#559833"/>
  <path d="M109.38,26.66c-1.43-0.84-3.7,0.12-4.68,1.97s-0.49,4.07,1.11,4.81c1.6,0.74,3.45,0.12,4.68-1.73 C111.37,30.38,111.47,27.89,109.38,26.66z" fill="#2E7E30"/>
  <path d="M66.98,73.73c-1.99-1.46-4.31-0.37-5.55,1.6c-1.23,1.97-1.23,3.82,0.25,5.18 c1.48,1.36,3.94,0.62,5.42-1.48C68.41,77.18,68.83,75.09,66.98,73.73z" fill="#2E7E30"/>
  <path d="M66.73,65.85c0.74,1.88,14.05-10.11,21.57-18.98s20.27-24.36,16.88-25.88 c-3.57-1.6-11.4,11.32-17.38,18.98C79.06,51.18,65.62,63.01,66.73,65.85z" fill="#2E7E30"/>
  <path d="M57.01,74.3c0.44,2.61-10.57,12.33-15.5,16.03c-2.79,2.09-18.94,10.9-20.12,8.01 c-0.78-1.92,11.14-7.55,15.77-10.71c5.23-3.57,9.23-6.97,12.37-9.49C51.31,76.69,56.69,72.42,57.01,74.3z" fill="#2E7E30"/>
  <path d="M105.78,14.03c0.05,1.31-1.92,2.44-4.88,3.22c-2.96,0.78-8.71,6.36-12.46,10.37 c-3.75,4.01-12.8,15.5-14.28,17.42s-9.41,8.97-11.58,11.15S47.51,68.47,44.12,71.08c-3.4,2.61-16.3,11.22-19.35,13.39 c-2.81,2.01-7.36,5.47-9.74,9.78c-1.86,3.34-3.22,7.14-4.44,6.79s-1.22-5.92,1.48-10.71c2.7-4.79,8.71-8.54,11.93-10.71 s18.29-12.11,18.29-12.11S52.74,58.8,55.18,56.8c2.44-2,13.67-11.85,17.07-16.29s10.63-13.76,15.07-18.47 c4.44-4.7,9.49-7.66,12.11-8.45C102.04,12.81,105.7,11.94,105.78,14.03z" fill="#2E7E30"/>
  <path d="M20.25,91.72c0.65,1.51,3.14,1.57,6.18-0.17c3.05-1.74,9.23-6.1,12.63-8.54 c4.01-2.87,8.19-6.18,9.49-7.49c2.09-2.09,2.7-3.82,2.18-5.05c-0.52-1.23-2.53-0.87-4.44,0.52c-4.18,3.05-6.97,4.7-14.2,9.58 c-2.9,1.96-7.49,5.23-9.23,6.62C21.12,88.59,19.47,89.89,20.25,91.72z" fill="#7FBA42"/>
  <path d="M90.8,16.55c0.65,1.3,2.53,0.61,4.96-0.96s2.96-2.61,2.18-3.83c-0.78-1.22-3.25-0.85-4.7,0.09 C91.76,12.81,89.93,14.81,90.8,16.55z" fill="#7FBA42"/>
  <path d="M92.89,27.54c1.27,1.68,3.89-0.56,5.71-2.36c1.72-1.69,3.8-3.38,4.58-4.3 c0.61-0.72,1.99-3.97-1.23-3.88c-2.6,0.07-6.08,3.28-7.63,4.88C93.2,23.03,91.57,25.8,92.89,27.54z" fill="#7FBA42"/>
</svg>

<svg viewBox="0 0 128 128" xmlns="http://www.w3.org/2000/svg">
  <defs/>
  <path d="M75.57,49.03 L4.53,103.66 C4.53,103.66 6.56,111.61 14,116.01 C20.19,119.67 26.85,119.73 35.31,116.86 C43.77,113.98 48.67,109.76 48.67,109.76 C48.67,109.76 52.06,110.84 54.59,108.91 C56.91,107.15 56.6,104.36 56.62,104.34 C57.43,103.58 70.18,93.86 76.1,88.28 C82.02,82.7 99.75,64.42 99.75,64.42 C99.75,64.42 103.06,64.72 105,62.51 C106.81,60.45 105.84,58.5 105.84,58.5 C105.84,58.5 123.97,42.77 124.28,30.09 C124.62,16.05 113.46,11.32 111.59,10.81 C109.73,10.3 75.57,49.03 75.57,49.03 Z" fill="#2E7E30"/>
  <path d="M73.03,29.58 C73.03,29.58 68.46,34.65 67.11,36.35 C65.76,38.04 62.04,41.93 62.04,41.93 C62.04,41.93 59.3,40.74 56.97,43.28 C54.9,45.53 55.45,48.69 55.45,48.69 C55.45,48.69 42.25,60.36 30.75,68.31 C19.25,76.26 6.95,84.38 4.37,94.02 C2.93,99.4 4.54,103.66 4.54,103.66 C4.54,103.66 7.42,104.34 9.95,106.2 C12.48,108.06 14.14,110.16 14.14,110.16 C14.14,110.16 24.16,111.1 32.96,106.54 C41.76,101.98 65.76,83.7 71.68,78.29 C77.6,72.88 100.13,50.33 105.68,43.28 C111.63,35.72 116.17,26.03 114.81,18.42 C113.46,10.81 111.6,10.81 111.6,10.81 C111.6,10.81 101.62,6.75 92.66,11.32 C84.26,15.6 79.3,22.31 79.3,22.31 C79.3,22.31 76.45,21.31 74.45,23.61 C72.08,26.32 73.03,29.58 73.03,29.58 Z" fill="#559833"/>
  <path d="M109.38,26.66 C107.95,25.82 105.68,26.78 104.7,28.63 C103.72,30.48 104.21,32.7 105.81,33.44 C107.41,34.18 109.26,33.56 110.49,31.71 C111.37,30.38 111.47,27.89 109.38,26.66 Z" fill="#2E7E30"/>
  <path d="M66.98,73.73 C64.99,72.27 62.67,73.36 61.43,75.33 C60.2,77.3 60.2,79.15 61.68,80.51 C63.16,81.87 65.62,81.13 67.1,79.03 C68.41,77.18 68.83,75.09 66.98,73.73 Z" fill="#2E7E30"/>
  <path d="M66.73,65.85 C67.47,67.73 80.78,55.74 88.3,46.87 C95.82,38 108.57,22.51 105.18,20.99 C101.61,19.39 93.78,32.31 87.8,39.97 C79.06,51.18 65.62,63.01 66.73,65.85 Z" fill="#2E7E30"/>
  <path d="M57.01,74.3 C57.45,76.91 46.44,86.63 41.51,90.33 C38.72,92.42 22.57,101.23 21.39,98.34 C20.61,96.42 32.53,90.79 37.16,87.63 C42.39,84.06 46.39,80.66 49.53,78.14 C51.31,76.69 56.69,72.42 57.01,74.3 Z" fill="#2E7E30"/>
  <path d="M105.78,14.03 C105.83,15.34 103.86,16.47 100.9,17.25 C97.94,18.03 92.19,23.61 88.44,27.62 C84.69,31.63 75.64,43.12 74.16,45.04 C72.68,46.96 64.75,54.01 62.58,56.19 C60.41,58.37 47.51,68.47 44.12,71.08 C40.72,73.69 27.82,82.3 24.77,84.47 C21.96,86.48 17.41,89.94 15.03,94.25 C13.17,97.59 11.81,101.39 10.59,101.04 C9.37,100.69 9.37,95.12 12.07,90.33 C14.77,85.54 20.78,81.79 24,79.62 C27.22,77.45 42.29,67.51 42.29,67.51 C42.29,67.51 52.74,58.8 55.18,56.8 C57.62,54.8 68.85,44.95 72.25,40.51 C75.65,36.07 82.88,26.75 87.32,22.04 C91.76,17.34 96.81,14.38 99.43,13.59 C102.04,12.81 105.7,11.94 105.78,14.03 Z" fill="#2E7E30"/>
  <path d="M20.25,91.72 C20.9,93.23 23.39,93.29 26.43,91.55 C29.48,89.81 35.66,85.45 39.06,83.01 C43.07,80.14 47.25,76.83 48.55,75.52 C50.64,73.43 51.25,71.7 50.73,70.47 C50.21,69.24 48.2,69.6 46.29,70.99 C42.11,74.04 39.32,75.69 32.09,80.57 C29.19,82.53 24.6,85.8 22.86,87.19 C21.12,88.59 19.47,89.89 20.25,91.72 Z" fill="#7FBA42"/>
  <path d="M90.8,16.55 C91.45,17.85 93.33,17.16 95.76,15.59 C98.19,14.02 98.72,12.98 97.94,11.76 C97.16,10.54 94.69,10.91 93.24,11.85 C91.76,12.81 89.93,14.81 90.8,16.55 Z" fill="#7FBA42"/>
  <path d="M92.89,27.54 C94.16,29.22 96.78,26.98 98.6,25.18 C100.32,23.49 102.4,21.8 103.18,20.88 C103.79,20.16 105.17,16.91 101.95,17 C99.35,17.07 95.87,20.28 94.32,21.88 C93.2,23.03 91.57,25.8 92.89,27.54 Z" fill="#7FBA42"/>
</svg>
